spyder/images/dark/run_again.svg

<?xml version="1.0" encoding="UTF-8" standalone="no"?>
<svg
   xmlns:dc="http://purl.org/dc/elements/1.1/"
   xmlns:cc="http://creativecommons.org/ns#"
   xmlns:rdf="http://www.w3.org/1999/02/22-rdf-syntax-ns#"
   xmlns:svg="http://www.w3.org/2000/svg"
   xmlns="http://www.w3.org/2000/svg"
   xmlns:sodipodi="http://sodipodi.sourceforge.net/DTD/sodipodi-0.dtd"
   xmlns:inkscape="http://www.inkscape.org/namespaces/inkscape"
   width="24"
   height="24"
   viewBox="0 0 24 24"
   fill="none"
   version="1.1"
   id="svg26"
   sodipodi:docname="run again 0-8-1.svg"
   inkscape:version="1.0.2 (e86c8708, 2021-01-15)">
  <metadata
     id="metadata32">
    <rdf:RDF>
      <cc:Work
         rdf:about="">
        <dc:format>image/svg+xml</dc:format>
        <dc:type
           rdf:resource="http://purl.org/dc/dcmitype/StillImage" />
        <dc:title></dc:title>
      </cc:Work>
    </rdf:RDF>
  </metadata>
  <defs
     id="defs30" />
  <sodipodi:namedview
     pagecolor="#ffffff"
     bordercolor="#666666"
     borderopacity="1"
     objecttolerance="10"
     gridtolerance="10"
     guidetolerance="10"
     inkscape:pageopacity="0"
     inkscape:pageshadow="2"
     inkscape:window-width="689"
     inkscape:window-height="480"
     id="namedview28"
     showgrid="false"
     inkscape:zoom="5.0065913"
     inkscape:cx="12"
     inkscape:cy="12"
     inkscape:window-x="30"
     inkscape:window-y="23"
     inkscape:window-maximized="0"
     inkscape:current-layer="svg26"
     inkscape:document-rotation="0" />
  <path
     d="M13 12V22L21 17L13 12Z"
     fill="#44DEB0"
     id="path22" />
  <path
     fill-rule="evenodd"
     clip-rule="evenodd"
     d="M10 5.6V2L5.625 6.5L10 11V7.4C12.2167 7.4 14.1157 8.81824 14.8847 10.8194L16.9694 12.1224C16.6377 8.46244 13.6453 5.6 10 5.6ZM11 19.9272C10.6734 19.9752 10.3395 20 10 20C6.1325 20 3 16.778 3 12.8H4.75C4.75 15.779 7.10375 18.2 10 18.2C10.3419 18.2 10.6762 18.1663 11 18.1019V19.9272Z"
     fill="#FAFAFA"
     id="path24" />
</svg>

<svg xmlns="http://www.w3.org/2000/svg" width="24" height="24" fill="none"><path fill="#44DEB0" d="M13 12v10l8-5-8-5Z"/><path fill="#FAFAFA" fill-rule="evenodd" d="M10 5.6V2L5.625 6.5 10 11V7.4c2.217 0 4.116 1.418 4.885 3.42l2.084 1.302C16.638 8.462 13.645 5.6 10 5.6Zm1 14.327c-.327.048-.66.073-1 .073-3.867 0-7-3.222-7-7.2h1.75c0 2.979 2.354 5.4 5.25 5.4.342 0 .676-.034 1-.098v1.825Z" clip-rule="evenodd"/></svg>
